icon-themes/sifr_svg/cmd/sc_outlineexpand.svg

<svg viewBox="0 0 16 16" xmlns="http://www.w3.org/2000/svg"><g fill="#555753"><path d="m8 0v2h7v-2zm-8 10v.412109.587891c0 .30945.0903.55232.28125.75.769594 1.016078 1.3210991 1.524849 1.9394531 2.25h1.6152344l1.8828125-2.25c.19095-.19768.28125-.44055.28125-.75v-.587891-.412109h-1c-.2566236-.01174-.528462.12983-.71875.3125l-.28125.371094-1 1.316406-1-1.316406-.28125-.371094c-.190301-.18267-.494728-.3125-.71875-.3125z"/><path d="m8 4v2h7v-2zm0 6v2h7v-2zm0 4v2h7v-2z" opacity=".35"/></g></svg>

<svg xmlns="http://www.w3.org/2000/svg" viewBox="0 0 16 16">
  <path
     style="fill:#555753"
     d="M 8 0 L 8 2 L 15 2 L 15 0 L 8 0 z M 0 10 L 0 10.412109 L 0 11 C 0 11.30945 0.0903 11.55232 0.28125 11.75 C 1.050844 12.766078 1.6023491 13.274849 2.2207031 14 L 3.8359375 14 L 5.71875 11.75 C 5.9097 11.55232 6 11.30945 6 11 L 6 10.412109 L 6 10 L 5 10 C 4.7433764 9.98826 4.471538 10.12983 4.28125 10.3125 L 4 10.683594 L 3 12 L 2 10.683594 L 1.71875 10.3125 C 1.528449 10.12983 1.224022 10 1 10 L 0 10 z "
     />
  <path
     style="opacity:0.35;fill:#555753"
     d="m 8,4 v 2 h 7 V 4 Z m 0,6 v 2 h 7 v -2 z m 0,4 v 2 h 7 v -2 z"
     />
</svg>
